icons/airplay.svg

<svg width="24" height="24" viewBox="0 0 24 24" fill="none" xmlns="http://www.w3.org/2000/svg">
<path d="M4.6822 19C3.06551 17.9251 2 16.087 2 14V8C2 4.68629 4.68629 2 8 2H16C19.3137 2 22 4.68629 22 8V14C22 16.087 20.9345 17.9251 19.3178 19M8.96872 19.8811L10.9904 17.3887C11.5106 16.7472 12.4894 16.7472 13.0096 17.3887L15.0313 19.8811C15.7205 20.7308 15.1158 22 14.0217 22H9.97835C8.8842 22 8.27946 20.7308 8.96872 19.8811Z" stroke="black" stroke-width="2" stroke-linecap="round" stroke-linejoin="round"/>
</svg>

<svg xmlns="http://www.w3.org/2000/svg" width="24" height="24" viewBox="0 0 24 24" fill="none" stroke="currentColor" stroke-width="2" stroke-linecap="round" stroke-linejoin="round">
<path d="M4.682 19A6 6 0 0 1 2 14V8a6 6 0 0 1 6-6h8a6 6 0 0 1 6 6v6a6 6 0 0 1-2.682 5m-10.35.881 2.022-2.492a1.3 1.3 0 0 1 2.02 0l2.021 2.492c.69.85.085 2.119-1.01 2.119H9.979c-1.094 0-1.699-1.27-1.01-2.119"/>
</svg>
